!!!!SEGMENT: pl-wnifc--6670-n--001-012_gall-jan-karol--piesni-polskie-na-chor-meski-z-i-12-otrzejcie-juz-lzy-placzace.krn
!!!cenid: 19xx:180
!!!COM: Gall, Jan Karol
!!!COM-rismID: pe50042628
!!!CDT: 1856-1912
!!!CNT: Polish
!!!GTL: Pieśni polskie na chór męski (z. I)
!!!OTL: 12. Otrzejcie już łzy płaczące
!!!OMV: 012
!!!PDT:
!!!AGN:
!!!YEC: Copyright 2022 Narodowy Instytut Fryderyka Chopina (https://polishscores.org)
!!!YEM: License CC-BY-4.0 (https://creativecommons.org/licenses/by/4.0)
!!!SMS-siglum: PL-Wnifc
!!!SMS-shelfmark: 6670/n
!!!SMS-variant:
!!!SMS-altvar:
!!!SMS-shelfwork: 001-012 G
!!!NIFC-rismSourceID: 1001152877
!!!NIFC-rismChildID: 1001152898
!!!NIFC-islandoraID: nifc:213182
!!!URL-pdf-islandora: https://repozytorium.nifc.pl/islandora/object/nifc:213182/datastream/PDF/view
!!!URL-scan: https://polish.musicsources.pl/pl/lokalizacje/galeria/druki-muzyczne/16895/8 @EN{Scan on Polish Music Sources Website} @PL{Skany w portalu Dziedzictwo Muzyki Polskiej w otwartym dostępie}
!!!IIIF:
!!!ONB-nifc:
!!!AIN: 1 bass 1 tenor
!!!key: G
**kern	**dynam	**kern	**text	**dynam
*part2	*part2	*part1	*part1	*part1
*staff2	*	*staff1	*staff1	*
*IGcoro	*	*IGcoro	*	*
*ICvox	*	*ICvox	*	*
*Ibass	*	*Itenor	*	*
*I"Basi.	*	*I"Tenory.	*	*
*I'B	*	*I'T	*	*
*clefF4	*	*clefGv2	*	*
*k[f#]	*	*k[f#]	*	*
*G:	*	*G:	*	*
*M3/4	*	*M3/4	*	*
*^	*	*^	*	*
!	!	!	!LO:TX:t=P:problem=brak przenośnika oktawowego przy kluczu	!	!	!
8D/	8GG\	f	8g/	8B\	O-	f
=1	=1	=1	=1	=1	=1	=1
4D/	8GG\L	.	8g/L	8B\L	-trzej-	.
.	8BB\J	.	8d/J	8G\J	.	.
4D/	8BB\L	.	8d/L	8G\L	-cie	.
.	8AA\J	.	8c/J	8F#\J	.	.
4D/	4GG\	.	4B/	4G\	już	.
=2	=2	=2	=2	=2	=2	=2
8C/	8C\	.	8e/	8G\	łzy	.
8C/	8C\	.	8e/	8G\	pła-	.
4C/	4C\	.	4e/	4G\	-czą-	.
4D/	4BB\	.	4d/	4G\	-cy	.
=3	=3	=3	=3	=3	=3	=3
8D/	8D\	.	8A/	16G\LL	ża-	.
.	.	.	.	16F#\JJ	.	.
8D/	8D\	.	8B/	8G\	-le	.
4D/	4D\	.	4c/	8A\L	zser-	.
.	.	.	.	8G\J	.	.
8D/	8D\	.	8d/	8F#\	-ca	.
8D/	8D\	.	8c/	8A\	wy-	.
!!LO:LB:g=original
=4	=4	=4	=4	=4	=4	=4
(4D/	(4D\	.	2B/	2G\	-zuj-	.
4E/)	4C#X\)	.	.	.	.	.
8F#/L	4D\	.	8A/L	8F#\L	-cie	.
8D/J	.	.	8D/J	8D\J	.	.
=5	=5	=5	=5	=5	=5	=5
8D/	8GG\	.	8g/	8B\	Wszy-	.
8D/	8BB\	.	8d/	8G\	-scy	.
4D/	8BB\L	.	8d/L	8G\L	w Chry-	.
.	8AA\J	.	8c/J	8F#\J	.	.
4D/	4GG\	.	4B/	4G\	-stu-	.
=6	=6	=6	=6	=6	=6	=6
8C/	8C\	.	8e/	8G\	-sa	.
8C/	8C\	.	8e/	8G\	wie-	.
4C/	4C\	.	4e/	4G\	-rzą-	.
8D/	8BB\	.	8d/	8G\	-cy	.
8D/	8BB\	.	8d/	8G\	we-	.
=7	=7	=7	=7	=7	=7	=7
8D/	8D\	.	8A/	16G\LL	-sel-	.
.	.	.	.	16F#\JJ	.	.
8D/	8D\	.	8B/	8G\	-cie	.
4D/	4D\	.	4c/	8A\L	się	.
.	.	.	.	8G\J	.	.
4D/	4D\	.	8d/L	8F#\L	ra-	.
.	.	.	8c/J	8A\J	.	.
=8	=8	=8	=8	=8	=8	=8
(4D/	(4D\	.	2B/	2G\	-duj-	.
4E/)	4C#X\)	.	.	.	.	.
8F#/L	4D\	.	8A/L	8F#\L	-cie	.
8D/J	.	.	8D/J	8D\J	.	.
!!LO:LB:g=original
=9	=9	=9	=9	=9	=9	=9
!	!	!	!	!	!	!LO:DY:a
8D/	8D\	p	8A/	8F#\	Bo	p
8D/	8D\	.	8A/	8F#\	zmar-	.
4D/	4D\	.	8A/L	8F#\L	-twych-	.
.	.	.	8B/J	8G\J	.	.
4D/	4D\	.	4c/	4A\	-wstał	.
=10	=10	=10	=10	=10	=10	=10
8D/	8GG\	.	8B/	8G\	sa-	.
8D/	8GG\	<	8B/	8G\	-mo-	<
4D/	8GG\L	[	8B/L	4G\	-wła-	[
.	8AA\J	.	8c/J	.	.	.
4D/	4BB\	.	4d/	4G\	-dnie	.
=11	=11	=11	=11	=11	=11	=11
4C/	4C\	f	4e/	4G\	jak	f
8C/	8C\	.	8e/	8G\	prze-	.
8C/	8C\	.	8e/	8G\	-po-	.
8D/	8AA\	<	8f#/	8c\	-wie-	<
8D/	8AA\	[[	8f#/	8c\	-dział	[[
=12	=12	=12	=12	=12	=12	=12
8D/	8GG\	.	8g/	8B\	nam	.
8D/	8BB\	.	8d/	8G\	do-	.
4D/	8BB\L	.	8d/L	4G\	-kła-	.
.	8AA\J	>	8c/J	.	.	>
4D/	4GG\	]	4B/	4G\	-dnie	]
!!LO:LB:g=original
=13	=13	=13	=13	=13	=13	=13
8D/	8D\	.	8A/	8G\	Al-	.
8D/	8D\	<	8A/	8G\	-le-	.
4D/	4D\	.	8A/L	16G\LL	-lu-	<
.	.	[	.	16F#\J	.	.
.	.	.	8B/J	8G\J	.	[
4D/	4D\	[	4c/	4A\	-ja!	.
=14	=14	=14	=14	=14	=14	=14
8D/	8GG\	.	8B/	8G\	Al-	.
8D/	8GG\	<	8B/	8G\	-le-	<
4D/	8GG\L	[	8B/L	4G\	-lu-	[
.	8AA\J	.	8c/J	.	.	.
4D/	4BB\	.	4d/	4G\	-ja!	.
=15	=15	=15	=15	=15	=15	=15
8C/	8C\	.	8e/	8G\	nie-	.
8C/	8C\	<	8e/	8G\	-chaj	<
4C/	4C\	[	4e/	4G\	za-	[
8D/	8AA\	.	8f#/	8c\	-brzmi	.
8D/	8AA\	.	8f#/	8c\	al-	.
=16	=16	=16	=16	=16	=16	=16
4D/	4GG\	ff	4g/	4B\	-le-	ff
4D/	4D\	.	4f#/	8A\L	-lu-	.
.	.	.	.	8c\J	.	.
4D/	4GG;\	.	4g;/	4B\	-ja!	.
*v	*v	*	*v	*v	*	*
==	==	==	==	==
*-	*-	*-	*-	*-
!!!system-decoration: [(*)]
!!!ENC: Andrzej Gręziak
!!!END: 2024-05-02
!!!EED: Andrzej Kubiczek
!!!EEV: 2025-03-06
